src/icons/svg/nuxt.svg

<svg xmlns="http://www.w3.org/2000/svg" width="24" height="24" fill="none"><path fill="#373B4D" fill-rule="evenodd" d="M9.258 5.035a1.7 1.7 0 0 0-.687.424c-.181.21-6.392 11.411-6.493 11.71-.1.292-.099.556.003.885.103.332.383.653.711.814l.228.112h2.86c2.794 0 2.868-.002 3.222-.087 1.195-.285 2.098-.922 2.807-1.98.098-.146.974-1.701 1.947-3.454.972-1.753 1.785-3.186 1.806-3.184s.85 1.467 1.843 3.255l1.805 3.25-2.439.02-2.439.02-.58 1.04a57 57 0 0 0-.6 1.091c-.017.041.735.048 3.853.04l3.875-.011.228-.112a1.41 1.41 0 0 0 .701-1.733c-.049-.135-1.229-2.299-2.622-4.808-1.91-3.438-2.575-4.602-2.7-4.726a1.8 1.8 0 0 0-.387-.273c-.292-.144-.76-.153-1.049-.02-.394.181-.527.358-1.254 1.67a44 44 0 0 1-.681 1.21c-.004-.004-.586-1.052-1.293-2.328s-1.342-2.377-1.41-2.447a1.4 1.4 0 0 0-.863-.394 1.7 1.7 0 0 0-.392.016m1.53 5.185 1.206 2.18-.856 1.544c-.471.848-.937 1.657-1.036 1.796-.382.535-.919.888-1.522 1.001-.26.049-.655.058-2.104.05l-1.784-.011 2.424-4.37c1.333-2.403 2.433-4.37 2.445-4.37.011 0 .563.981 1.227 2.18"/></svg>

<svg width="24" height="24" viewBox="0 0 24 24" fill="none" xmlns="http://www.w3.org/2000/svg"><path d="M9.258 5.035 C 9.041 5.091,8.714 5.294,8.571 5.459 C 8.390 5.669,2.179 16.870,2.078 17.169 C 1.978 17.461,1.979 17.725,2.081 18.054 C 2.184 18.386,2.464 18.707,2.792 18.868 L 3.020 18.980 5.880 18.980 C 8.674 18.980,8.748 18.978,9.102 18.893 C 10.297 18.608,11.200 17.971,11.909 16.913 C 12.007 16.767,12.883 15.212,13.856 13.459 C 14.828 11.706,15.641 10.273,15.662 10.275 C 15.683 10.277,16.512 11.742,17.505 13.530 L 19.310 16.780 16.871 16.800 L 14.432 16.820 13.852 17.860 C 13.533 18.432,13.263 18.923,13.252 18.951 C 13.235 18.992,13.987 18.999,17.105 18.991 L 20.980 18.980 21.208 18.868 C 21.844 18.556,22.150 17.800,21.909 17.135 C 21.860 17.000,20.680 14.836,19.287 12.327 C 17.377 8.889,16.712 7.725,16.587 7.601 C 16.495 7.511,16.321 7.388,16.200 7.328 C 15.908 7.184,15.440 7.175,15.151 7.308 C 14.757 7.489,14.624 7.666,13.897 8.978 C 13.527 9.648,13.220 10.193,13.216 10.188 C 13.212 10.184,12.630 9.136,11.923 7.860 C 11.216 6.585,10.581 5.483,10.513 5.413 C 10.302 5.195,9.957 5.038,9.650 5.019 C 9.502 5.010,9.325 5.017,9.258 5.035 M10.788 10.220 L 11.994 12.400 11.138 13.944 C 10.667 14.792,10.201 15.601,10.102 15.740 C 9.720 16.275,9.183 16.628,8.580 16.741 C 8.320 16.790,7.925 16.799,6.476 16.791 L 4.692 16.780 7.116 12.410 C 8.449 10.007,9.549 8.040,9.561 8.040 C 9.572 8.040,10.124 9.021,10.788 10.220 " fill="#373B4D" stroke="none" fill-rule="evenodd"></path></svg>
